X: 38
T:Honey Moon. WCa.38
M:C|
Q:130
S:Wm. Calvert MS, 1812, Leyburn, Yorks.
R:Strathspey
O:England
A:North Yorkshire
Z:vmp.Chris Partington, May 2003
K:D
A<dd2(d<f)(f<a)|g<fe<d c<ee2|\
A<dd2(d<f)(f<a|g<f e<gd2z2::!
d<AA2B<dd2|A<FE<D C<EE2|\
d<AA2 Bfd2z2:||
